docs/img/icons/social-3.svg

<svg width="32" height="32" viewBox="0 0 32 32" fill="none" xmlns="http://www.w3.org/2000/svg">
<path d="M16 32C24.8387 32 32 24.8387 32 16C32 7.16133 24.8387 0 16 0C7.16133 0 0 7.16133 0 16C0 24.8387 7.16133 32 16 32ZM7.32133 15.6533L22.748 9.70533C23.464 9.44667 24.0893 9.88 23.8573 10.9627L23.8587 10.9613L21.232 23.336C21.0373 24.2133 20.516 24.4267 19.7867 24.0133L15.7867 21.0653L13.8573 22.924C13.644 23.1373 13.464 23.3173 13.0507 23.3173L13.3347 19.2467L20.748 12.5493C21.0707 12.2653 20.676 12.1053 20.2507 12.388L11.0893 18.156L7.14 16.924C6.28267 16.652 6.264 16.0667 7.32133 15.6533Z" fill="#237D26"/>
</svg>

<svg width="32" height="32" fill="none" xmlns="http://www.w3.org/2000/svg"><path d="M16 32c8.839 0 16-7.161 16-16S24.839 0 16 0 0 7.161 0 16s7.161 16 16 16zM7.321 15.653l15.427-5.948c.716-.258 1.341.175 1.11 1.258v-.002l-2.626 12.375c-.195.877-.716 1.09-1.445.677l-4-2.948-1.93 1.859c-.213.213-.393.393-.806.393l.284-4.07 7.413-6.698c.323-.284-.072-.444-.497-.161l-9.162 5.768-3.949-1.232c-.857-.272-.876-.857.181-1.27z" fill="#237D26"/></svg>
